assets/img/education.svg

<svg xmlns="http://www.w3.org/2000/svg" style="margin:auto;background:0 0;display:block;shape-rendering:auto" width="196" height="33" preserveAspectRatio="xMidYMid"><style>@keyframes breath-333aa2b1-464c-4786-92ee-f0803c1d9adb{0%{animation-timing-function:cubic-bezier(.9647,.2413,-.0705,.7911);transform:scale(.9099999999999999)}51%{animation-timing-function:cubic-bezier(.9226,.2631,-.0308,.7628);transform:scale(1.02994)}to{transform:scale(.9099999999999999)}}</style><g style="transform-origin:98px 16.5px;transform:scale(1.02857)"><g style="transform:scale(.91);transform-origin:-71.325px -2.92024px;animation:1s linear -.594s infinite normal forwards running breath-333aa2b1-464c-4786-92ee-f0803c1d9adb"><path d="M.74-23.73v-.77h18.2l.35 6.93h-.63q-1.47-3.54-3.08-4.85-1.61-1.31-4.73-1.31H9.63v10.81h1.19q1.64 0 2.76-1.24 1.12-1.24 1.58-3.34h.52v10.36h-.59q-.63-2.63-1.7-3.75-1.07-1.12-2.92-1.12h-.84V-.77h1.33q3.22 0 5.47-1.93 2.26-1.92 3.1-4.93h.7L19.95 0H.74v-.77H2.8v-22.96H.74" fill="#fd3b3b" stroke-width="none" transform="translate(16.19 25.83)" style="fill:#fd3b3b" class="path"/></g><g style="transform:scale(.91);transform-origin:-49.61px -3.62024px;animation:1s linear -.528s infinite normal forwards running breath-333aa2b1-464c-4786-92ee-f0803c1d9adb"><path d="M29.3-7.25q0 3.68.38 4.89.39 1.2 1.42 1.2 1.03 0 1.78-.91.76-.91.76-2.69v-7.63q0-1.51-.6-2.56Q32.45-16 31.29-16q-1.15 0-1.57 1.54-.42 1.54-.42 5.39v1.82zM41.86 0h-7.77l-.38-2.45Q32.52.35 28.88.35q-3.01 0-4.68-2.17-1.66-2.17-1.66-6.47 0-8.72 6.93-8.72 3.08 0 4.06 1.71v-10.32H31.4v-.63h8.75V-.63h1.71V0" fill="#fd3b3b" stroke-width="none" transform="translate(16.19 25.83)" style="fill:#00e2ff" class="path"/></g><g style="transform:scale(.91);transform-origin:-29.08px 1.17476px;animation:1s linear -.462s infinite normal forwards running breath-333aa2b1-464c-4786-92ee-f0803c1d9adb"><path d="M63.07-.63V0h-7.98l-.38-2.56q-.56 1.4-1.67 2.16-1.1.75-3.27.75-5.42 0-5.42-5.85v-10.53h-1.96v-.63h8.47v12q0 2.1.29 2.77.3.66 1.19.66.9 0 1.6-1.08.7-1.09.7-3.01v-10.71h-1.61v-.63h8.12V-.63h1.92" fill="#fd3b3b" stroke-width="none" transform="translate(16.19 25.83)" style="fill:#49ff00" class="path"/></g><g style="transform:scale(.91);transform-origin:-9.93503px .99976px;animation:1s linear -.396s infinite normal forwards running breath-333aa2b1-464c-4786-92ee-f0803c1d9adb"><path d="M73.57-16.38q-1.54 0-2.2 1.68-.67 1.68-.67 5.56v1.82q0 3.47.77 4.97.77 1.51 2.84 1.51 2.06 0 3.28-1.4 1.23-1.4 1.58-3.19l.63.07q-.66 3.01-2.45 4.34Q75.53.35 72.34.35q-4.06 0-6.22-2.19-2.17-2.19-2.17-6.4 0-4.22 2.46-6.5 2.47-2.27 6.88-2.27 3.12 0 4.76 1.21 1.65 1.2 1.65 3.02t-.79 2.66q-.79.84-2.17.84t-2.22-.73q-.85-.74-.85-2.17 0-.63.18-1.26H75q.25-.7.25-1.26 0-1.68-1.68-1.68" fill="#fd3b3b" stroke-width="none" transform="translate(16.19 25.83)" style="fill:#ff00fb" class="path"/></g><g style="transform:scale(.91);transform-origin:8.47497px .99976px;animation:1s linear -.33s infinite normal forwards running breath-333aa2b1-464c-4786-92ee-f0803c1d9adb"><path d="M89.08-8.23h1.01v-2.69q0-3.33-.37-4.46-.36-1.14-1.41-1.14-.64 0-1.14.33-.51.33-.51.91 0 .58.21 1.17h.88q.28.74.28 1.77t-.88 1.79q-.87.75-2.2.75-3.01 0-3.01-2.91 0-4.3 7.31-4.3 4.17 0 5.76 1.42 1.59 1.41 1.59 5.19v7.11q0 1.82 1.02 1.82 1.19 0 1.4-3.61l.52.04q-.14 3.08-1.15 4.23Q97.37.35 95.06.35q-4.2 0-4.83-2.59-.45 1.33-1.36 1.96-.92.63-2.67.63-5.17 0-5.17-4.24 0-2.48 1.97-3.41 1.98-.93 6.08-.93zm-1.41 4.31q0 1.82.2 2.34.19.53.73.53.55 0 1.02-.89.47-.9.47-2.47v-3.26h-.25q-2.17 0-2.17 3.19v.56" fill="#fd3b3b" stroke-width="none" transform="translate(16.19 25.83)" style="fill:#f5c80a" class="path"/></g><g style="transform:scale(.91);transform-origin:24.19px -1.89024px;animation:1s linear -.264s infinite normal forwards running breath-333aa2b1-464c-4786-92ee-f0803c1d9adb"><path d="M101.11-5.01v-11.02h-1.92v-.63h1.92v-4.52l6.52-1.61v6.13h4.54v.63h-4.54v11.79q0 1.65.33 2.42t1.38.77q1.05 0 1.84-1.05t1.03-2.87l.6.07q-.28 2.41-1.54 3.83Q110 .35 107.1.35t-4.44-1.16q-1.55-1.15-1.55-4.2" fill="#fd3b3b" stroke-width="none" transform="translate(16.19 25.83)" style="fill:#fd3b3b" class="path"/></g><g style="transform:scale(.91);transform-origin:36.58px -13.0052px;animation:1s linear -.198s infinite normal forwards running breath-333aa2b1-464c-4786-92ee-f0803c1d9adb"><path d="M118.3-19.08q-1.85 0-2.64-.94-.79-.95-.79-2.35 0-1.4.86-2.31.86-.91 2.61-.91t2.66.83q.91.82.91 2.34t-.88 2.43q-.87.91-2.73.91" fill="#fd3b3b" stroke-width="none" transform="translate(16.19 25.83)" style="fill:#00e2ff" class="path"/></g><g style="transform:scale(.91);transform-origin:36.475px .99976px;animation:1s linear -.132s infinite normal forwards running breath-333aa2b1-464c-4786-92ee-f0803c1d9adb"><path d="M113.02-16.03v-.63h8.57V-.63h1.96V0h-10.39v-.63h1.92v-15.4h-2.06" fill="#fd3b3b" stroke-width="none" transform="translate(16.19 25.83)" style="fill:#49ff00" class="path"/></g><g style="transform:scale(.91);transform-origin:51.595px .99976px;animation:1s linear -.066s infinite normal forwards running breath-333aa2b1-464c-4786-92ee-f0803c1d9adb"><path d="M135.56-6.9v-2.97q0-3.4-.37-4.95-.37-1.56-1.7-1.56-.77 0-1.24.44-.47.43-.69 1.45-.31 1.57-.31 4.79v2.73q0 3.82.23 4.59t.47 1.26q.39.84 1.51.84 1.36 0 1.78-1.58.32-1.12.32-5.04zM133.39.35q-4.38 0-6.62-2.24t-2.24-6.42q0-4.19 2.4-6.44 2.4-2.26 6.74-2.26 4.33 0 6.47 2.08 2.14 2.08 2.14 6.35 0 8.93-8.89 8.93" fill="#fd3b3b" stroke-width="none" transform="translate(16.19 25.83)" style="fill:#ff00fb" class="path"/></g><g style="transform:scale(.91);transform-origin:72.03px .82476px;animation:1s linear 0s infinite normal forwards running breath-333aa2b1-464c-4786-92ee-f0803c1d9adb"><path d="M143.32-16.03v-.63h8.44v3.22q.56-1.61 1.71-2.59 1.16-.98 3.5-.98 5.43 0 5.43 5.84V-.63h1.96V0h-9.9v-.63h1.43v-11.38q0-2.1-.28-2.71-.28-.61-1.02-.61-1.12 0-1.97 1.47-.86 1.47-.86 3.57v9.66h1.51V0h-9.95v-.63h1.93v-15.4h-1.93" fill="#fd3b3b" stroke-width="none" transform="translate(16.19 25.83)" style="fill:#f5c80a" class="path"/></g></g></svg>

<?xml version="1.0" encoding="utf-8"?>
<svg xmlns="http://www.w3.org/2000/svg" style="margin: auto; background: none; display: block; shape-rendering: auto;" width="196" height="33" preserveAspectRatio="xMidYMid">
<style type="text/css">
  text {
    text-anchor: middle; font-size: 36px; opacity: 0;
  }
</style>
<g style="transform-origin: 98px 16.5px; transform: scale(1.02857);">
<g transform="translate(98,16.5)">
  <g transform="translate(0,0)"><g class="path" style="transform: scale(0.91); transform-origin: -71.325px -2.92024px; animation: 1s linear -0.594s infinite normal forwards running breath-333aa2b1-464c-4786-92ee-f0803c1d9adb;"><path d="M0.74-23.73L0.74-24.50L18.94-24.50L19.29-17.57L18.66-17.57L18.66-17.57Q17.19-21.11 15.58-22.42L15.58-22.42L15.58-22.42Q13.97-23.73 10.85-23.73L10.85-23.73L9.63-23.73L9.63-12.92L10.82-12.92L10.82-12.92Q12.46-12.92 13.58-14.16L13.58-14.16L13.58-14.16Q14.70-15.40 15.16-17.50L15.16-17.50L15.68-17.50L15.68-7.14L15.09-7.14L15.09-7.14Q14.46-9.77 13.39-10.89L13.39-10.89L13.39-10.89Q12.32-12.01 10.47-12.01L10.47-12.01L9.63-12.01L9.63-0.77L10.96-0.77L10.96-0.77Q14.18-0.77 16.43-2.70L16.43-2.70L16.43-2.70Q18.69-4.62 19.53-7.63L19.53-7.63L20.23-7.63L19.95 0L0.74 0L0.74-0.77L2.80-0.77L2.80-23.73L0.74-23.73" fill="#fd3b3b" stroke="none" stroke-width="none" transform="translate(-81.81002807617188,9.329759564399719)" style="fill: rgb(253, 59, 59);"></path></g><g class="path" style="transform: scale(0.91); transform-origin: -49.61px -3.62024px; animation: 1s linear -0.528s infinite normal forwards running breath-333aa2b1-464c-4786-92ee-f0803c1d9adb;"><path d="M29.30-7.25L29.30-7.25Q29.30-3.57 29.68-2.36L29.68-2.36L29.68-2.36Q30.07-1.16 31.10-1.16L31.10-1.16L31.10-1.16Q32.13-1.16 32.88-2.07L32.88-2.07L32.88-2.07Q33.64-2.98 33.64-4.76L33.64-4.76L33.64-12.39L33.64-12.39Q33.64-13.90 33.04-14.95L33.04-14.95L33.04-14.95Q32.45-16.00 31.29-16.00L31.29-16.00L31.29-16.00Q30.14-16.00 29.72-14.46L29.72-14.46L29.72-14.46Q29.30-12.92 29.30-9.07L29.30-9.07L29.30-7.25zM41.86 0L34.09 0L33.71-2.45L33.71-2.45Q32.52 0.35 28.88 0.35L28.88 0.35L28.88 0.35Q25.87 0.35 24.20-1.82L24.20-1.82L24.20-1.82Q22.54-3.99 22.54-8.29L22.54-8.29L22.54-8.29Q22.54-17.01 29.47-17.01L29.47-17.01L29.47-17.01Q32.55-17.01 33.53-15.30L33.53-15.30L33.53-25.62L31.40-25.62L31.40-26.25L40.15-26.25L40.15-0.63L41.86-0.63L41.86 0" fill="#fd3b3b" stroke="none" stroke-width="none" transform="translate(-81.81002807617188,9.329759564399719)" style="fill: rgb(0, 226, 255);"></path></g><g class="path" style="transform: scale(0.91); transform-origin: -29.08px 1.17476px; animation: 1s linear -0.462s infinite normal forwards running breath-333aa2b1-464c-4786-92ee-f0803c1d9adb;"><path d="M63.07-0.63L63.07 0L55.09 0L54.71-2.56L54.71-2.56Q54.15-1.16 53.04-0.40L53.04-0.40L53.04-0.40Q51.94 0.35 49.77 0.35L49.77 0.35L49.77 0.35Q44.35 0.35 44.35-5.50L44.35-5.50L44.35-16.03L42.39-16.03L42.39-16.66L50.86-16.66L50.86-4.66L50.86-4.66Q50.86-2.56 51.15-1.89L51.15-1.89L51.15-1.89Q51.45-1.23 52.34-1.23L52.34-1.23L52.34-1.23Q53.24-1.23 53.94-2.31L53.94-2.31L53.94-2.31Q54.64-3.40 54.64-5.32L54.64-5.32L54.64-16.03L53.03-16.03L53.03-16.66L61.15-16.66L61.15-0.63L63.07-0.63" fill="#fd3b3b" stroke="none" stroke-width="none" transform="translate(-81.81002807617188,9.329759564399719)" style="fill: rgb(73, 255, 0);"></path></g><g class="path" style="transform: scale(0.91); transform-origin: -9.93503px 0.99976px; animation: 1s linear -0.396s infinite normal forwards running breath-333aa2b1-464c-4786-92ee-f0803c1d9adb;"><path d="M73.57-16.38L73.57-16.38L73.57-16.38Q72.03-16.38 71.37-14.70L71.37-14.70L71.37-14.70Q70.70-13.02 70.70-9.14L70.70-9.14L70.70-7.32L70.70-7.32Q70.70-3.85 71.47-2.35L71.47-2.35L71.47-2.35Q72.24-0.84 74.31-0.84L74.31-0.84L74.31-0.84Q76.37-0.84 77.59-2.24L77.59-2.24L77.59-2.24Q78.82-3.64 79.17-5.43L79.17-5.43L79.80-5.36L79.80-5.36Q79.14-2.35 77.35-1.02L77.35-1.02L77.35-1.02Q75.53 0.35 72.34 0.35L72.34 0.35L72.34 0.35Q68.28 0.35 66.12-1.84L66.12-1.84L66.12-1.84Q63.95-4.03 63.95-8.24L63.95-8.24L63.95-8.24Q63.95-12.46 66.41-14.74L66.41-14.74L66.41-14.74Q68.88-17.01 73.29-17.01L73.29-17.01L73.29-17.01Q76.41-17.01 78.05-15.80L78.05-15.80L78.05-15.80Q79.70-14.60 79.70-12.78L79.70-12.78L79.70-12.78Q79.70-10.96 78.91-10.12L78.91-10.12L78.91-10.12Q78.12-9.28 76.74-9.28L76.74-9.28L76.74-9.28Q75.36-9.28 74.52-10.01L74.52-10.01L74.52-10.01Q73.67-10.75 73.67-12.18L73.67-12.18L73.67-12.18Q73.67-12.81 73.85-13.44L73.85-13.44L75.00-13.44L75.00-13.44Q75.25-14.14 75.25-14.70L75.25-14.70L75.25-14.70Q75.25-16.38 73.57-16.38" fill="#fd3b3b" stroke="none" stroke-width="none" transform="translate(-81.81002807617188,9.329759564399719)" style="fill: rgb(255, 0, 251);"></path></g><g class="path" style="transform: scale(0.91); transform-origin: 8.47497px 0.99976px; animation: 1s linear -0.33s infinite normal forwards running breath-333aa2b1-464c-4786-92ee-f0803c1d9adb;"><path d="M89.08-8.23L89.08-8.23L90.09-8.23L90.09-10.92L90.09-10.92Q90.09-14.25 89.72-15.38L89.72-15.38L89.72-15.38Q89.36-16.52 88.31-16.52L88.31-16.52L88.31-16.52Q87.67-16.52 87.17-16.19L87.17-16.19L87.17-16.19Q86.66-15.86 86.66-15.28L86.66-15.28L86.66-15.28Q86.66-14.70 86.87-14.11L86.87-14.11L87.75-14.11L87.75-14.11Q88.03-13.37 88.03-12.34L88.03-12.34L88.03-12.34Q88.03-11.31 87.15-10.55L87.15-10.55L87.15-10.55Q86.28-9.80 84.95-9.80L84.95-9.80L84.95-9.80Q81.94-9.80 81.94-12.71L81.94-12.71L81.94-12.71Q81.94-17.01 89.25-17.01L89.25-17.01L89.25-17.01Q93.42-17.01 95.01-15.59L95.01-15.59L95.01-15.59Q96.60-14.18 96.60-10.40L96.60-10.40L96.60-3.29L96.60-3.29Q96.60-1.47 97.62-1.47L97.62-1.47L97.62-1.47Q98.81-1.47 99.02-5.08L99.02-5.08L99.54-5.04L99.54-5.04Q99.40-1.96 98.39-0.81L98.39-0.81L98.39-0.81Q97.37 0.35 95.06 0.35L95.06 0.35L95.06 0.35Q90.86 0.35 90.23-2.24L90.23-2.24L90.23-2.24Q89.78-0.91 88.87-0.28L88.87-0.28L88.87-0.28Q87.95 0.35 86.20 0.35L86.20 0.35L86.20 0.35Q81.03 0.35 81.03-3.89L81.03-3.89L81.03-3.89Q81.03-6.37 83.00-7.30L83.00-7.30L83.00-7.30Q84.98-8.23 89.08-8.23zM87.67-3.92L87.67-3.92Q87.67-2.10 87.87-1.58L87.87-1.58L87.87-1.58Q88.06-1.05 88.60-1.05L88.60-1.05L88.60-1.05Q89.15-1.05 89.62-1.94L89.62-1.94L89.62-1.94Q90.09-2.84 90.09-4.41L90.09-4.41L90.09-7.67L89.84-7.67L89.84-7.67Q87.67-7.67 87.67-4.48L87.67-4.48L87.67-3.92" fill="#fd3b3b" stroke="none" stroke-width="none" transform="translate(-81.81002807617188,9.329759564399719)" style="fill: rgb(245, 200, 10);"></path></g><g class="path" style="transform: scale(0.91); transform-origin: 24.19px -1.89024px; animation: 1s linear -0.264s infinite normal forwards running breath-333aa2b1-464c-4786-92ee-f0803c1d9adb;"><path d="M101.11-5.01L101.11-5.01L101.11-16.03L99.19-16.03L99.19-16.66L101.11-16.66L101.11-21.18L107.63-22.79L107.63-16.66L112.17-16.66L112.17-16.03L107.63-16.03L107.63-4.24L107.63-4.24Q107.63-2.59 107.96-1.82L107.96-1.82L107.96-1.82Q108.29-1.05 109.34-1.05L109.34-1.05L109.34-1.05Q110.39-1.05 111.18-2.10L111.18-2.10L111.18-2.10Q111.97-3.15 112.21-4.97L112.21-4.97L112.81-4.90L112.81-4.90Q112.53-2.49 111.27-1.07L111.27-1.07L111.27-1.07Q110.00 0.35 107.10 0.35L107.10 0.35L107.10 0.35Q104.20 0.35 102.66-0.81L102.66-0.81L102.66-0.81Q101.11-1.96 101.11-5.01" fill="#fd3b3b" stroke="none" stroke-width="none" transform="translate(-81.81002807617188,9.329759564399719)" style="fill: rgb(253, 59, 59);"></path></g><g class="path" style="transform: scale(0.91); transform-origin: 36.58px -13.0052px; animation: 1s linear -0.198s infinite normal forwards running breath-333aa2b1-464c-4786-92ee-f0803c1d9adb;"><path d="M118.30-19.08L118.30-19.08L118.30-19.08Q116.45-19.08 115.66-20.02L115.66-20.02L115.66-20.02Q114.87-20.97 114.87-22.37L114.87-22.37L114.87-22.37Q114.87-23.77 115.73-24.68L115.73-24.68L115.73-24.68Q116.59-25.59 118.34-25.59L118.34-25.59L118.34-25.59Q120.09-25.59 121.00-24.76L121.00-24.76L121.00-24.76Q121.91-23.94 121.91-22.42L121.91-22.42L121.91-22.42Q121.91-20.90 121.03-19.99L121.03-19.99L121.03-19.99Q120.16-19.08 118.30-19.08" fill="#fd3b3b" stroke="none" stroke-width="none" transform="translate(-81.81002807617188,9.329759564399719)" style="fill: rgb(0, 226, 255);"></path></g><g class="path" style="transform: scale(0.91); transform-origin: 36.475px 0.99976px; animation: 1s linear -0.132s infinite normal forwards running breath-333aa2b1-464c-4786-92ee-f0803c1d9adb;"><path d="M113.02-16.03L113.02-16.66L121.59-16.66L121.59-0.63L123.55-0.63L123.55 0L113.16 0L113.16-0.63L115.08-0.63L115.08-16.03L113.02-16.03" fill="#fd3b3b" stroke="none" stroke-width="none" transform="translate(-81.81002807617188,9.329759564399719)" style="fill: rgb(73, 255, 0);"></path></g><g class="path" style="transform: scale(0.91); transform-origin: 51.595px 0.99976px; animation: 1s linear -0.066s infinite normal forwards running breath-333aa2b1-464c-4786-92ee-f0803c1d9adb;"><path d="M135.56-6.90L135.56-6.90L135.56-9.87L135.56-9.87Q135.56-13.27 135.19-14.82L135.19-14.82L135.19-14.82Q134.82-16.38 133.49-16.38L133.49-16.38L133.49-16.38Q132.72-16.38 132.25-15.94L132.25-15.94L132.25-15.94Q131.78-15.51 131.56-14.49L131.56-14.49L131.56-14.49Q131.25-12.92 131.25-9.70L131.25-9.70L131.25-6.97L131.25-6.97Q131.25-3.15 131.48-2.38L131.48-2.38L131.48-2.38Q131.71-1.61 131.95-1.12L131.95-1.12L131.95-1.12Q132.34-0.28 133.46-0.28L133.46-0.28L133.46-0.28Q134.82-0.28 135.24-1.86L135.24-1.86L135.24-1.86Q135.56-2.98 135.56-6.90zM133.39 0.35L133.39 0.35Q129.01 0.35 126.77-1.89L126.77-1.89L126.77-1.89Q124.53-4.13 124.53-8.31L124.53-8.31L124.53-8.31Q124.53-12.50 126.93-14.75L126.93-14.75L126.93-14.75Q129.33-17.01 133.67-17.01L133.67-17.01L133.67-17.01Q138.00-17.01 140.14-14.93L140.14-14.93L140.14-14.93Q142.28-12.85 142.28-8.58L142.28-8.58L142.28-8.58Q142.28 0.35 133.39 0.35L133.39 0.35" fill="#fd3b3b" stroke="none" stroke-width="none" transform="translate(-81.81002807617188,9.329759564399719)" style="fill: rgb(255, 0, 251);"></path></g><g class="path" style="transform: scale(0.91); transform-origin: 72.03px 0.82476px; animation: 1s linear 0s infinite normal forwards running breath-333aa2b1-464c-4786-92ee-f0803c1d9adb;"><path d="M143.32-16.03L143.32-16.66L151.76-16.66L151.76-13.44L151.76-13.44Q152.32-15.05 153.47-16.03L153.47-16.03L153.47-16.03Q154.63-17.01 156.97-17.01L156.97-17.01L156.97-17.01Q162.40-17.01 162.40-11.17L162.40-11.17L162.40-0.63L164.36-0.63L164.36 0L154.46 0L154.46-0.63L155.89-0.63L155.89-12.01L155.89-12.01Q155.89-14.11 155.61-14.72L155.61-14.72L155.61-14.72Q155.33-15.33 154.59-15.33L154.59-15.33L154.59-15.33Q153.47-15.33 152.62-13.86L152.62-13.86L152.62-13.86Q151.76-12.39 151.76-10.29L151.76-10.29L151.76-0.63L153.27-0.63L153.27 0L143.32 0L143.32-0.63L145.25-0.63L145.25-16.03L143.32-16.03" fill="#fd3b3b" stroke="none" stroke-width="none" transform="translate(-81.81002807617188,9.329759564399719)" style="fill: rgb(245, 200, 10);"></path></g></g>
</g>
</g>
<style id="breath-333aa2b1-464c-4786-92ee-f0803c1d9adb" data-anikit="">@keyframes breath-333aa2b1-464c-4786-92ee-f0803c1d9adb
{
  0% {
    animation-timing-function: cubic-bezier(0.9647,0.2413,-0.0705,0.7911);
    transform: scale(0.9099999999999999);
  }
  51% {
    animation-timing-function: cubic-bezier(0.9226,0.2631,-0.0308,0.7628);
    transform: scale(1.02994);
  }
  100% {
    transform: scale(0.9099999999999999);
  }
}</style></svg>
